X: 25065
T: Maids Of Castlebar, The
R: reel
M: 4/4
K: Dmajor
|:d~D3 (3FED B,E|D2 FA BAFA|1 d2 (3cdc (3BcB AF|DE (3FED EB,B,A:|2 dgfe dBAG|(3FFF EA FDD2||
|:fgag fd (3ddd|fdad fdd2|(3gge be geef|(3gfe be geea|
fd (3ddd bd (3ddd|fdec dcBA|Bcde (3fga ec|dBAG FDD2:|

